icons/ki.svg

<?xml version="1.0" ?>
<svg xmlns="http://www.w3.org/2000/svg" xmlns:ev="http://www.w3.org/2001/xml-events" xmlns:xlink="http://www.w3.org/1999/xlink" baseProfile="full" height="503px" version="1.1" viewBox="-1027.7490769879844 -35.09080652853743 12298.926525636136 10305.886820200749" width="600px">
	<defs/>
	<path d="M 450.0,9371.0 C 409.0,9349.0 351.0,9309.0 322.0,9283.0 L 268.0,9235.0 L 258.0,9140.0 L 248.0,9045.0 L 180.0,8975.0 C 135.0,8929.0 99.0,8880.0 74.0,8830.0 C 38.0,8758.0 36.0,8748.0 19.0,8565.0 C 0.0,8363.0 -4.0,8095.0 9.0,7918.0 L 17.0,7812.0 L 119.0,7671.0 C 292.0,7429.0 375.0,7334.0 451.0,7292.0 C 502.0,7264.0 540.0,7230.0 615.0,7145.0 C 669.0,7085.0 765.0,6980.0 828.0,6913.0 L 944.0,6790.0 L 1054.0,6790.0 L 1165.0,6789.0 L 1314.0,6847.0 L 1462.0,6905.0 L 1503.0,6965.0 C 1525.0,6998.0 1568.0,7053.0 1598.0,7088.0 C 1637.0,7133.0 1658.0,7168.0 1671.0,7211.0 C 1696.0,7292.0 1696.0,7299.0 1655.0,7380.0 C 1627.0,7436.0 1612.0,7454.0 1580.0,7470.0 C 1552.0,7484.0 1540.0,7497.0 1539.0,7513.0 C 1539.0,7525.0 1535.0,7562.0 1530.0,7595.0 C 1524.0,7643.0 1526.0,7669.0 1542.0,7725.0 C 1572.0,7830.0 1634.0,7946.0 1669.0,7965.0 C 1685.0,7973.0 1728.0,8002.0 1763.0,8029.0 L 1828.0,8079.0 L 1848.0,8030.0 L 1868.0,7982.0 L 1954.0,7975.0 L 2039.0,7968.0 L 2083.0,7921.0 C 2106.0,7896.0 2138.0,7859.0 2153.0,7839.0 C 2167.0,7820.0 2191.0,7797.0 2205.0,7790.0 C 2224.0,7780.0 2235.0,7759.0 2251.0,7706.0 C 2267.0,7650.0 2281.0,7625.0 2318.0,7588.0 L 2364.0,7540.0 L 2453.0,7540.0 C 2521.0,7540.0 2550.0,7536.0 2580.0,7520.0 C 2615.0,7502.0 2620.0,7495.0 2620.0,7465.0 L 2620.0,7430.0 L 2673.0,7430.0 C 2735.0,7430.0 2770.0,7409.0 2857.0,7319.0 C 2896.0,7278.0 2917.0,7244.0 2944.0,7176.0 L 2980.0,7086.0 L 2980.0,6804.0 L 2980.0,6523.0 L 3028.0,6505.0 C 3054.0,6495.0 3101.0,6474.0 3133.0,6458.0 L 3191.0,6429.0 L 3224.0,6457.0 C 3247.0,6478.0 3278.0,6490.0 3340.0,6504.0 C 3430.0,6523.0 3470.0,6548.0 3470.0,6584.0 C 3470.0,6605.0 3575.0,6701.0 3605.0,6708.0 C 3638.0,6716.0 3658.0,6691.0 3665.0,6635.0 C 3671.0,6587.0 3676.0,6578.0 3705.0,6560.0 C 3732.0,6543.0 3755.0,6540.0 3852.0,6540.0 L 3966.0,6540.0 L 4040.0,6485.0 L 4114.0,6430.0 L 4211.0,6430.0 L 4309.0,6430.0 L 4345.0,6313.0 C 4365.0,6248.0 4382.0,6191.0 4384.0,6186.0 C 4385.0,6181.0 4419.0,6165.0 4460.0,6149.0 C 4552.0,6115.0 4656.0,6111.0 4772.0,6139.0 L 4849.0,6157.0 L 5042.0,6119.0 L 5234.0,6080.0 L 5364.0,5981.0 C 5477.0,5896.0 5508.0,5878.0 5590.0,5850.0 C 5674.0,5821.0 5693.0,5810.0 5750.0,5755.0 C 5791.0,5716.0 5835.0,5685.0 5870.0,5670.0 C 5997.0,5618.0 6206.0,5504.0 6294.0,5439.0 C 6380.0,5376.0 6392.0,5370.0 6437.0,5370.0 L 6486.0,5370.0 L 6523.0,5283.0 C 6557.0,5204.0 6568.0,5189.0 6630.0,5137.0 L 6698.0,5080.0 L 6778.0,5115.0 C 6822.0,5134.0 6861.0,5150.0 6864.0,5150.0 C 6868.0,5150.0 6880.0,5129.0 6891.0,5104.0 C 6901.0,5078.0 6944.0,5020.0 6985.0,4975.0 C 7058.0,4895.0 7060.0,4891.0 7060.0,4841.0 L 7060.0,4788.0 L 7094.0,4809.0 C 7115.0,4822.0 7144.0,4830.0 7172.0,4830.0 C 7213.0,4830.0 7224.0,4824.0 7311.0,4750.0 C 7363.0,4706.0 7437.0,4641.0 7475.0,4606.0 C 7514.0,4571.0 7572.0,4529.0 7605.0,4512.0 C 7671.0,4478.0 7710.0,4430.0 7750.0,4328.0 C 7770.0,4279.0 7778.0,4270.0 7804.0,4264.0 C 7868.0,4251.0 7954.0,4192.0 8013.0,4121.0 C 8045.0,4082.0 8079.0,4049.0 8088.0,4046.0 C 8101.0,4041.0 8182.0,3926.0 8229.0,3843.0 C 8233.0,3836.0 8263.0,3825.0 8296.0,3819.0 C 8328.0,3813.0 8384.0,3792.0 8419.0,3773.0 L 8482.0,3737.0 L 8476.0,3679.0 L 8469.0,3621.0 L 8517.0,3618.0 C 8564.0,3615.0 8565.0,3614.0 8597.0,3555.0 C 8619.0,3513.0 8654.0,3473.0 8717.0,3417.0 C 8765.0,3374.0 8808.0,3333.0 8811.0,3327.0 C 8815.0,3320.0 8821.0,3292.0 8825.0,3264.0 L 8831.0,3213.0 L 8899.0,3196.0 L 8967.0,3178.0 L 9008.0,3107.0 C 9067.0,3004.0 9143.0,2922.0 9327.0,2760.0 L 9489.0,2617.0 L 9529.0,2498.0 C 9572.0,2370.0 9574.0,2367.0 9731.0,2190.0 C 9767.0,2149.0 9831.0,2064.0 9873.0,2001.0 L 9948.0,1887.0 L 9911.0,1783.0 C 9877.0,1688.0 9869.0,1675.0 9826.0,1641.0 C 9800.0,1620.0 9748.0,1568.0 9711.0,1525.0 C 9673.0,1482.0 9608.0,1417.0 9565.0,1380.0 L 9488.0,1313.0 L 9413.0,1342.0 C 9325.0,1375.0 9227.0,1453.0 9140.0,1556.0 C 9082.0,1625.0 8852.0,1829.0 8797.0,1859.0 C 8779.0,1869.0 8721.0,1901.0 8667.0,1931.0 C 8573.0,1981.0 8567.0,1987.0 8539.0,2042.0 C 8519.0,2081.0 8500.0,2105.0 8477.0,2116.0 C 8378.0,2166.0 8269.0,2244.0 8232.0,2293.0 C 8209.0,2321.0 8158.0,2377.0 8118.0,2416.0 C 8049.0,2484.0 8041.0,2489.0 7970.0,2505.0 C 7889.0,2525.0 7816.0,2571.0 7730.0,2659.0 C 7705.0,2684.0 7649.0,2734.0 7605.0,2770.0 L 7526.0,2834.0 L 7345.0,2872.0 C 7246.0,2892.0 7164.0,2910.0 7163.0,2910.0 C 7162.0,2910.0 7130.0,2954.0 7093.0,3008.0 C 7037.0,3089.0 7021.0,3120.0 7007.0,3182.0 L 6989.0,3258.0 L 6920.0,3305.0 C 6860.0,3346.0 6843.0,3353.0 6778.0,3361.0 C 6738.0,3365.0 6660.0,3370.0 6605.0,3370.0 L 6505.0,3371.0 L 6341.0,3498.0 L 6177.0,3625.0 L 6142.0,3709.0 C 6106.0,3792.0 6105.0,3793.0 6020.0,3850.0 C 5956.0,3893.0 5898.0,3920.0 5791.0,3959.0 L 5648.0,4010.0 L 5517.0,4011.0 C 5304.0,4012.0 5226.0,4022.0 5109.0,4064.0 C 5007.0,4100.0 5004.0,4103.0 4948.0,4169.0 C 4894.0,4233.0 4890.0,4242.0 4890.0,4288.0 C 4890.0,4334.0 4887.0,4341.0 4847.0,4377.0 C 4823.0,4399.0 4786.0,4423.0 4764.0,4430.0 C 4743.0,4437.0 4710.0,4453.0 4692.0,4465.0 C 4663.0,4485.0 4654.0,4486.0 4610.0,4477.0 C 4563.0,4468.0 4557.0,4463.0 4493.0,4380.0 C 4431.0,4300.0 4418.0,4289.0 4350.0,4256.0 L 4275.0,4221.0 L 4020.0,4215.0 C 3880.0,4211.0 3743.0,4208.0 3715.0,4208.0 C 3688.0,4207.0 3613.0,4210.0 3550.0,4215.0 L 3435.0,4223.0 L 3374.0,4192.0 C 3323.0,4166.0 3294.0,4160.0 3194.0,4150.0 L 3075.0,4139.0 L 3028.0,4093.0 C 2986.0,4051.0 2981.0,4042.0 2975.0,3986.0 C 2965.0,3890.0 2965.0,3890.0 2923.0,3902.0 C 2903.0,3907.0 2850.0,3937.0 2804.0,3967.0 C 2721.0,4022.0 2720.0,4024.0 2720.0,4064.0 C 2720.0,4096.0 2728.0,4115.0 2755.0,4149.0 C 2774.0,4173.0 2790.0,4195.0 2790.0,4197.0 C 2790.0,4199.0 2777.0,4227.0 2760.0,4260.0 C 2726.0,4326.0 2710.0,4334.0 2610.0,4328.0 L 2556.0,4325.0 L 2547.0,4283.0 C 2543.0,4259.0 2532.0,4239.0 2522.0,4235.0 C 2513.0,4231.0 2422.0,4225.0 2319.0,4222.0 L 2134.0,4217.0 L 2115.0,4246.0 C 2105.0,4262.0 2053.0,4320.0 2000.0,4375.0 C 1947.0,4430.0 1887.0,4503.0 1867.0,4538.0 C 1833.0,4596.0 1830.0,4608.0 1830.0,4678.0 C 1830.0,4753.0 1828.0,4758.0 1784.0,4829.0 C 1759.0,4870.0 1710.0,4940.0 1676.0,4986.0 C 1642.0,5031.0 1603.0,5096.0 1589.0,5130.0 C 1569.0,5183.0 1553.0,5203.0 1485.0,5264.0 C 1348.0,5385.0 1337.0,5403.0 1291.0,5588.0 C 1257.0,5720.0 1250.0,5766.0 1250.0,5844.0 L 1250.0,5940.0 L 1357.0,6154.0 L 1464.0,6368.0 L 1522.0,6396.0 L 1580.0,6424.0 L 1580.0,6483.0 C 1580.0,6536.0 1561.0,6590.0 1525.0,6638.0 C 1524.0,6639.0 1497.0,6645.0 1466.0,6651.0 L 1408.0,6661.0 L 1317.0,6602.0 C 1187.0,6517.0 1143.0,6505.0 1000.0,6517.0 L 885.0,6527.0 L 815.0,6495.0 C 731.0,6456.0 629.0,6358.0 572.0,6261.0 C 535.0,6198.0 535.0,6197.0 441.0,6160.0 L 347.0,6123.0 L 309.0,6049.0 L 271.0,5975.0 L 271.0,5805.0 L 270.0,5635.0 L 338.0,5549.0 C 382.0,5492.0 443.0,5431.0 515.0,5373.0 C 576.0,5323.0 697.0,5206.0 785.0,5112.0 L 945.0,4941.0 L 1078.0,4683.0 L 1212.0,4425.0 L 1433.0,4262.0 C 1648.0,4104.0 1657.0,4096.0 1702.0,4022.0 L 1750.0,3945.0 L 2262.0,3798.0 L 2775.0,3651.0 L 3040.0,3616.0 C 3294.0,3581.0 3318.0,3580.0 3600.0,3580.0 C 3951.0,3580.0 4257.0,3594.0 4433.0,3619.0 L 4561.0,3636.0 L 4678.0,3551.0 C 4742.0,3505.0 4828.0,3440.0 4869.0,3408.0 C 4910.0,3376.0 4953.0,3347.0 4964.0,3345.0 C 4976.0,3342.0 5046.0,3329.0 5120.0,3315.0 C 5223.0,3296.0 5364.0,3254.0 5710.0,3139.0 L 6165.0,2988.0 L 6605.0,2773.0 C 6847.0,2655.0 7235.0,2460.0 7467.0,2339.0 L 7889.0,2118.0 L 8172.0,1867.0 C 8328.0,1728.0 8592.0,1503.0 8759.0,1366.0 C 9018.0,1155.0 9092.0,1100.0 9263.0,994.0 C 9373.0,926.0 9477.0,868.0 9494.0,866.0 C 9511.0,863.0 9621.0,854.0 9739.0,845.0 L 9953.0,828.0 L 10076.0,876.0 L 10200.0,923.0 L 10200.0,1005.0 C 10200.0,1061.0 10206.0,1105.0 10221.0,1148.0 L 10242.0,1211.0 L 10222.0,1268.0 C 10205.0,1314.0 10200.0,1359.0 10196.0,1501.0 L 10191.0,1677.0 L 10100.0,1910.0 C 10025.0,2102.0 9966.0,2227.0 9775.0,2599.0 C 9383.0,3362.0 9467.0,3236.0 9085.0,3641.0 C 8801.0,3943.0 8697.0,4045.0 8333.0,4376.0 C 8084.0,4602.0 7743.0,4899.0 7503.0,5098.0 L 7095.0,5436.0 L 6670.0,5700.0 L 6245.0,5964.0 L 5295.0,6453.0 C 4555.0,6834.0 4256.0,6994.0 3945.0,7175.0 C 3725.0,7302.0 3466.0,7451.0 3370.0,7506.0 C 3224.0,7588.0 3136.0,7649.0 2845.0,7869.0 C 2653.0,8015.0 2425.0,8195.0 2340.0,8269.0 C 1947.0,8614.0 1861.0,8677.0 1540.0,8862.0 C 1414.0,8935.0 1093.0,9161.0 1076.0,9189.0 C 1073.0,9193.0 999.0,9227.0 911.0,9265.0 C 769.0,9327.0 750.0,9337.0 745.0,9361.0 C 737.0,9396.0 723.0,9401.0 615.0,9406.0 C 526.0,9410.0 524.0,9410.0 450.0,9371.0" fill="pink"/>
</svg>

<?xml version="1.0" standalone="no"?>
<!DOCTYPE svg PUBLIC "-//W3C//DTD SVG 20010904//EN"
 "http://www.w3.org/TR/2001/REC-SVG-20010904/DTD/svg10.dtd">
<svg version="1.0" xmlns="http://www.w3.org/2000/svg"
 width="1024.000000pt" height="1024.000000pt" viewBox="0 0 1024.000000 1024.000000"
 preserveAspectRatio="xMidYMid meet">
<metadata>
Created by potrace 1.10, written by Peter Selinger 2001-2011
</metadata>
<g transform="translate(0.000000,1024.000000) scale(0.100000,-0.100000)"
fill="#000000" stroke="none">
<path d="M450 9371 c-41 -22 -99 -62 -128 -88 l-54 -48 -10 -95 -10 -95 -68
-70 c-45 -46 -81 -95 -106 -145 -36 -72 -38 -82 -55 -265 -19 -202 -23 -470
-10 -647 l8 -106 102 -141 c173 -242 256 -337 332 -379 51 -28 89 -62 164
-147 54 -60 150 -165 213 -232 l116 -123 110 0 111 -1 149 58 148 58 41 60
c22 33 65 88 95 123 39 45 60 80 73 123 25 81 25 88 -16 169 -28 56 -43 74
-75 90 -28 14 -40 27 -41 43 0 12 -4 49 -9 82 -6 48 -4 74 12 130 30 105 92
221 127 240 16 8 59 37 94 64 l65 50 20 -49 20 -48 86 -7 85 -7 44 -47 c23
-25 55 -62 70 -82 14 -19 38 -42 52 -49 19 -10 30 -31 46 -84 16 -56 30 -81
67 -118 l46 -48 89 0 c68 0 97 -4 127 -20 35 -18 40 -25 40 -55 l0 -35 53 0
c62 0 97 -21 184 -111 39 -41 60 -75 87 -143 l36 -90 0 -282 0 -281 48 -18
c26 -10 73 -31 105 -47 l58 -29 33 28 c23 21 54 33 116 47 90 19 130 44 130
80 0 21 105 117 135 124 33 8 53 -17 60 -73 6 -48 11 -57 40 -75 27 -17 50
-20 147 -20 l114 0 74 -55 74 -55 97 0 98 0 36 -117 c20 -65 37 -122 39 -127
1 -5 35 -21 76 -37 92 -34 196 -38 312 -10 l77 18 193 -38 192 -39 130 -99
c113 -85 144 -103 226 -131 84 -29 103 -40 160 -95 41 -39 85 -70 120 -85 127
-52 336 -166 424 -231 86 -63 98 -69 143 -69 l49 0 37 -87 c34 -79 45 -94 107
-146 l68 -57 80 35 c44 19 83 35 86 35 4 0 16 -21 27 -46 10 -26 53 -84 94
-129 73 -80 75 -84 75 -134 l0 -53 34 21 c21 13 50 21 78 21 41 0 52 -6 139
-80 52 -44 126 -109 164 -144 39 -35 97 -77 130 -94 66 -34 105 -82 145 -184
20 -49 28 -58 54 -64 64 -13 150 -72 209 -143 32 -39 66 -72 75 -75 13 -5 94
-120 141 -203 4 -7 34 -18 67 -24 32 -6 88 -27 123 -46 l63 -36 -6 -58 -7 -58
48 -3 c47 -3 48 -4 80 -63 22 -42 57 -82 120 -138 48 -43 91 -84 94 -90 4 -7
10 -35 14 -63 l6 -51 68 -17 68 -18 41 -71 c59 -103 135 -185 319 -347 l162
-143 40 -119 c43 -128 45 -131 202 -308 36 -41 100 -126 142 -189 l75 -114
-37 -104 c-34 -95 -42 -108 -85 -142 -26 -21 -78 -73 -115 -116 -38 -43 -103
-108 -146 -145 l-77 -67 -75 29 c-88 33 -186 111 -273 214 -58 69 -288 273
-343 303 -18 10 -76 42 -130 72 -94 50 -100 56 -128 111 -20 39 -39 63 -62 74
-99 50 -208 128 -245 177 -23 28 -74 84 -114 123 -69 68 -77 73 -148 89 -81
20 -154 66 -240 154 -25 25 -81 75 -125 111 l-79 64 -181 38 c-99 20 -181 38
-182 38 -1 0 -33 44 -70 98 -56 81 -72 112 -86 174 l-18 76 -69 47 c-60 41
-77 48 -142 56 -40 4 -118 9 -173 9 l-100 1 -164 127 -164 127 -35 84 c-36 83
-37 84 -122 141 -64 43 -122 70 -229 109 l-143 51 -131 1 c-213 1 -291 11
-408 53 -102 36 -105 39 -161 105 -54 64 -58 73 -58 119 0 46 -3 53 -43 89
-24 22 -61 46 -83 53 -21 7 -54 23 -72 35 -29 20 -38 21 -82 12 -47 -9 -53
-14 -117 -97 -62 -80 -75 -91 -143 -124 l-75 -35 -255 -6 c-140 -4 -277 -7
-305 -7 -27 -1 -102 2 -165 7 l-115 8 -61 -31 c-51 -26 -80 -32 -180 -42
l-119 -11 -47 -46 c-42 -42 -47 -51 -53 -107 -10 -96 -10 -96 -52 -84 -20 5
-73 35 -119 65 -83 55 -84 57 -84 97 0 32 8 51 35 85 19 24 35 46 35 48 0 2
-13 30 -30 63 -34 66 -50 74 -150 68 l-54 -3 -9 -42 c-4 -24 -15 -44 -25 -48
-9 -4 -100 -10 -203 -13 l-185 -5 -19 29 c-10 16 -62 74 -115 129 -53 55 -113
128 -133 163 -34 58 -37 70 -37 140 0 75 -2 80 -46 151 -25 41 -74 111 -108
157 -34 45 -73 110 -87 144 -20 53 -36 73 -104 134 -137 121 -148 139 -194
324 -34 132 -41 178 -41 256 l0 96 107 214 107 214 58 28 58 28 0 59 c0 53
-19 107 -55 155 -1 1 -28 7 -59 13 l-58 10 -91 -59 c-130 -85 -174 -97 -317
-85 l-115 10 -70 -32 c-84 -39 -186 -137 -243 -234 -37 -63 -37 -64 -131 -101
l-94 -37 -38 -74 -38 -74 0 -170 -1 -170 68 -86 c44 -57 105 -118 177 -176 61
-50 182 -167 270 -261 l160 -171 133 -258 134 -258 221 -163 c215 -158 224
-166 269 -240 l48 -77 512 -147 513 -147 265 -35 c254 -35 278 -36 560 -36
351 0 657 14 833 39 l128 17 117 -85 c64 -46 150 -111 191 -143 41 -32 84 -61
95 -63 12 -3 82 -16 156 -30 103 -19 244 -61 590 -176 l455 -151 440 -215
c242 -118 630 -313 862 -434 l422 -221 283 -251 c156 -139 420 -364 587 -501
259 -211 333 -266 504 -372 110 -68 214 -126 231 -128 17 -3 127 -12 245 -21
l214 -17 123 48 124 47 0 82 c0 56 6 100 21 143 l21 63 -20 57 c-17 46 -22 91
-26 233 l-5 176 -91 233 c-75 192 -134 317 -325 689 -392 763 -308 637 -690
1042 -284 302 -388 404 -752 735 -249 226 -590 523 -830 722 l-408 338 -425
264 -425 264 -950 489 c-740 381 -1039 541 -1350 722 -220 127 -479 276 -575
331 -146 82 -234 143 -525 363 -192 146 -420 326 -505 400 -393 345 -479 408
-800 593 -126 73 -447 299 -464 327 -3 4 -77 38 -165 76 -142 62 -161 72 -166
96 -8 35 -22 40 -130 45 -89 4 -91 4 -165 -35z"/>
</g>
</svg>
